Newaita-dark/apps/48/tranquil.svg

<svg height="48pt" viewBox="0 0 48 48" width="48pt" xmlns="http://www.w3.org/2000/svg" xmlns:xlink="http://www.w3.org/1999/xlink"><linearGradient id="a"><stop offset="0" stop-opacity=".313725"/><stop offset=".222222" stop-opacity=".27451"/><stop offset="1" stop-opacity="0"/></linearGradient><radialGradient id="b" cx="450.90894" cy="189.57936" gradientTransform="matrix(.00000026 -.117199 -.210958 -.00000015 66.784728 95.392998)" gradientUnits="userSpaceOnUse" r="21.166656" xlink:href="#a"/><radialGradient id="c" cx="450.90894" cy="189.57936" gradientTransform="matrix(-.00000026 .117199 .210958 .00000015 -19.155181 -11.291222)" gradientUnits="userSpaceOnUse" r="21.166656" xlink:href="#a"/><radialGradient id="d" cx="450.90894" cy="189.57936" gradientTransform="matrix(-.00000026 -.117199 .210958 -.00000015 -19.155181 95.392998)" gradientUnits="userSpaceOnUse" r="21.166656" xlink:href="#a"/><radialGradient id="e" cx="450.90894" cy="189.57936" gradientTransform="matrix(.00000026 .117199 -.210958 .00000015 66.784725 -11.291223)" gradientUnits="userSpaceOnUse" r="21.166656" xlink:href="#a"/><linearGradient id="f" gradientTransform="matrix(.0200401 0 0 .093759 18.698079 20.158175)" gradientUnits="userSpaceOnUse" x1="255.32306" x2="255.32304" y1="233.5" y2="254.66666"><stop offset="0" stop-opacity=".27451"/><stop offset="1" stop-opacity="0"/></linearGradient><linearGradient id="g" gradientUnits="userSpaceOnUse" x1="254" x2="254" y1="-168.66667" y2="233.5"><stop offset="0" stop-color="#ba68c8"/><stop offset="1" stop-color="#ab47bc"/></linearGradient><linearGradient id="h" gradientUnits="userSpaceOnUse" x1="23.814786" x2="23.814786" y1="42.0509015" y2="4.34415668747"><stop offset="0" stop-color="#ef9a9a"/><stop offset="1" stop-color="#ffcdd2"/></linearGradient><linearGradient id="i" gradientUnits="userSpaceOnUse" x1="23.814816" x2="23.814816" y1="42.05096669922" y2="4.34417296272"><stop offset="0" stop-color="#ec407a"/><stop offset="1" stop-color="#f06292"/></linearGradient><linearGradient id="j" gradientUnits="userSpaceOnUse" x1="23.814816" x2="23.814816" y1="42.05096669922" y2="4.34417296272"><stop offset="0" stop-color="#795548"/><stop offset="1" stop-color="#8d6e63"/></linearGradient><path d="m27.289062 42.050781h3.96875v-1.984375h-3.96875zm0 0" fill="url(#b)"/><path d="m20.339844 42.050781h-3.96875v1.984375h3.96875zm0 0" fill="url(#c)"/><path d="m20.339844 42.050781h-3.96875v-1.984375h3.96875zm0 0" fill="url(#d)"/><path d="m27.289062 42.050781h3.96875v1.984375h-3.96875zm0 0" fill="url(#e)"/><path d="m20.339844 41.554688h6.949218v2.480468h-6.949218zm0 0" fill="url(#f)"/><path d="m254.017409-168.671091c111.031064 0 201.064133 90.033069 201.064133 201.105795 0 111.031064-90.033069 201.064133-201.064133 201.064133-111.072726 0-201.105795-90.033069-201.105795-201.064133 0-111.072726 90.033069-201.105795 201.105795-201.105795zm0 0" fill="url(#g)" stroke="#333" stroke-linecap="round" stroke-width="3" transform="matrix(.093759 0 0 .093759 0 20.158175)"/><path d="m23.816406 12.28125c6.027344 0 10.914063 4.886719 10.914063 10.917969 0 6.027343-4.886719 10.914062-10.914063 10.914062-6.03125 0-10.917968-4.886719-10.917968-10.914062 0-6.03125 4.886718-10.917969 10.917968-10.917969zm0 0" fill="url(#h)"/><path d="m23.816406 12.28125c-6.046875 0-10.917968 4.871094-10.917968 10.917969 0 .121093.003906.246093.007812.371093.195312-5.875 4.984375-10.542968 10.910156-10.542968 5.921875 0 10.710938 4.667968 10.90625 10.542968.003906-.125.007813-.25.007813-.371093 0-6.046875-4.867188-10.917969-10.914063-10.917969zm0 0" fill="#fff" fill-opacity=".392157"/><path d="m254.017409-84.012509c64.285528 0 116.405551 52.120023 116.405551 116.447213 0 64.285528-52.120023 116.405551-116.405551 116.405551-64.32719 0-116.447213-52.120023-116.447213-116.405551 0-64.32719 52.120023-116.447213 116.447213-116.447213zm0 0" fill="none" stroke="#212121" stroke-linecap="round" stroke-width="3" transform="matrix(.093759 0 0 .093759 0 20.158175)"/><path d="m14.597656 30.175781 6.242188 8.738281s3.347656 1.457032 6.625 2.785157c6.355468-1.234375 11.550781-5.644531 13.878906-11.523438zm0 0" fill="url(#i)"/><path d="m14.597656 30.175781.46875.652344h26.003906c.09375-.214844.1875-.433594.273438-.652344zm0 0" fill="#fff" fill-opacity=".392157"/><path d="m588.44775 1216.419286 251.629518 352.249831s134.947744 58.734549 267.061114 112.272744c256.19601-49.759028 465.624832-227.537329 559.474139-464.522575zm0 0" fill="none" stroke="#212121" stroke-width="12.765609" transform="scale(.0248071)"/><path d="m5.824219 17.527344c-.5625 1.789062-.863281 3.691406-.863281 5.671875 0 10.441406 8.410156 18.851562 18.855468 18.851562 4.628906 0 8.855469-1.652343 12.132813-4.402343-1.582031-.195313-2.84375-.539063-6.464844-.539063-2.027344 0-7.378906 1.804687-9.375-1.996094-1.550781-3.007812-4.371094-5.414062-6.683594-6.015625-1.960937-.507812-2.5-2.40625-2.660156-4.6875-.1875-2.40625-2.121094-2.46875-3.355469-4.019531-.820312-1.074219-1.035156-2.230469-1.585937-2.863281zm0 0" fill="url(#j)"/><path d="m23.816406 42.050781c-10.445312 0-18.855468-8.410156-18.855468-18.851562 0-.0625 0-.125 0-.1875.101562 10.359375 8.472656 18.667969 18.855468 18.667969 10.382813 0 18.753906-8.308594 18.851563-18.667969v.1875c0 10.441406-8.410157 18.851562-18.851563 18.851562zm0 0" fill-opacity=".196078"/><path d="m23.816406 4.34375c-10.445312 0-18.855468 8.410156-18.855468 18.855469v.183593c.101562-10.359374 8.472656-18.667968 18.855468-18.667968 10.382813 0 18.753906 8.308594 18.851563 18.667968 0-.0625 0-.125 0-.183593 0-10.445313-8.410157-18.855469-18.851563-18.855469zm0 0" fill="#fff" fill-opacity=".392157"/><path d="m5.824219 17.527344c-.5625 1.789062-.863281 3.691406-.863281 5.671875 0 .097656 0 .199219.003906.300781.027344-1.867188.328125-3.664062.859375-5.359375.550781.632813.765625 1.785156 1.585937 2.859375 1.234375 1.550781 3.167969 1.617188 3.355469 4.023438.160156 2.277343.699219 4.179687 2.660156 4.6875 2.3125.601562 5.132813 3.007812 6.683594 6.015624 1.996094 3.800782 7.347656 1.996094 9.375 1.996094 3.117187 0 4.484375.253906 5.8125.449219.222656-.167969.4375-.34375.652344-.523437-1.582031-.195313-2.84375-.539063-6.464844-.539063-2.027344 0-7.378906 1.804687-9.375-1.996094-1.550781-3.007812-4.371094-5.414062-6.683594-6.015625-1.960937-.507812-2.5-2.40625-2.660156-4.6875-.1875-2.40625-2.121094-2.46875-3.355469-4.019531-.820312-1.074219-1.035156-2.230469-1.585937-2.863281zm0 0" fill="#fff" fill-opacity=".392157"/><path d="m23.816406 4.203125c-10.523437 0-18.996094 8.472656-18.996094 18.996094 0 10.519531 8.472657 18.992187 18.996094 18.992187 10.519532 0 18.992188-8.472656 18.992188-18.992187 0-10.523438-8.472656-18.996094-18.992188-18.996094zm0 .28125c10.367188 0 18.710938 8.34375 18.710938 18.714844 0 10.367187-8.34375 18.710937-18.710938 18.710937-10.371094 0-18.714844-8.34375-18.714844-18.710937 0-10.371094 8.34375-18.714844 18.714844-18.714844zm0 0" fill="#212121"/><path d="m5.953125 16.746094c-.320313 1.015625-.558594 2.066406-.703125 3.144531.140625-.804687.332031-1.59375.574219-2.363281.550781.632812.765625 1.789062 1.585937 2.863281 1.234375 1.550781 3.167969 1.613281 3.355469 4.019531.160156 2.28125.699219 4.179688 2.660156 4.6875 2.3125.601563 5.132813 3.007813 6.683594 6.015625 1.996094 3.800781 7.347656 1.996094 9.375 1.996094 3.621094 0 4.882813.34375 6.464844.539063-.015625.011718-.03125.023437-.042969.035156.273438-.203125.542969-.414063.808594-.632813-1.617188-.199219-2.902344-.546875-6.601563-.546875-2.070312 0-7.535156 1.824219-9.570312-2.011718-1.585938-3.035157-4.464844-5.464844-6.824219-6.070313-2.003906-.511719-2.554688-2.429687-2.714844-4.730469-.195312-2.425781-2.167968-2.492187-3.429687-4.058594-.839844-1.082031-1.054688-2.246093-1.621094-2.886718zm0 0" fill-opacity=".235294"/><path d="m234.780732 706.54671c-22.675 72.119098-34.799827 148.80469-34.799827 228.639587 0 420.904692 339.022748 759.92744 760.084906 759.92744 186.596356 0 356.973789-66.607814 489.087159-177.463371-63.773439-7.873264-114.634724-21.730208-260.605038-21.730208-81.724481 0-297.451914 72.748959-377.916672-80.464758-62.513716-121.248266-176.203648-218.246878-269.423093-242.496531-79.047571-20.470486-100.77778-96.998612-107.233856-188.958336-7.558333-96.998612-85.503647-99.518057-135.262675-162.031773-33.067709-43.302952-41.728299-89.912674-63.930904-115.42205zm0 0" fill="none" stroke="#212121" stroke-width="12.765609" transform="scale(.0248071)"/><path d="m14.980469 29.625c.164062.226562.335937.445312.515625.65625h16.636718c.179688-.210938.351563-.429688.515626-.65625zm0 0" fill-opacity=".235294"/></svg>

<?xml version="1.0" encoding="UTF-8"?>
<svg xmlns="http://www.w3.org/2000/svg" xmlns:xlink="http://www.w3.org/1999/xlink" width="48pt" height="48pt" viewBox="0 0 48 48" version="1.1">
<defs>
<radialGradient id="radial0" gradientUnits="userSpaceOnUse" cx="450.90894" cy="189.57936" fx="450.90894" fy="189.57936" r="21.166656" gradientTransform="matrix(0.000000261256,-0.117199,-0.210958,-0.000000152308,66.784728,95.392998)">
<stop offset="0" style="stop-color:rgb(0%,0%,0%);stop-opacity:0.313725;"/>
<stop offset="0.222222" style="stop-color:rgb(0%,0%,0%);stop-opacity:0.27451;"/>
<stop offset="1" style="stop-color:rgb(0%,0%,0%);stop-opacity:0;"/>
</radialGradient>
<radialGradient id="radial1" gradientUnits="userSpaceOnUse" cx="450.90894" cy="189.57936" fx="450.90894" fy="189.57936" r="21.166656" gradientTransform="matrix(-0.000000261256,0.117199,0.210958,0.000000152308,-19.155181,-11.291222)">
<stop offset="0" style="stop-color:rgb(0%,0%,0%);stop-opacity:0.313725;"/>
<stop offset="0.222222" style="stop-color:rgb(0%,0%,0%);stop-opacity:0.27451;"/>
<stop offset="1" style="stop-color:rgb(0%,0%,0%);stop-opacity:0;"/>
</radialGradient>
<radialGradient id="radial2" gradientUnits="userSpaceOnUse" cx="450.90894" cy="189.57936" fx="450.90894" fy="189.57936" r="21.166656" gradientTransform="matrix(-0.000000261256,-0.117199,0.210958,-0.000000152308,-19.155181,95.392998)">
<stop offset="0" style="stop-color:rgb(0%,0%,0%);stop-opacity:0.313725;"/>
<stop offset="0.222222" style="stop-color:rgb(0%,0%,0%);stop-opacity:0.27451;"/>
<stop offset="1" style="stop-color:rgb(0%,0%,0%);stop-opacity:0;"/>
</radialGradient>
<radialGradient id="radial3" gradientUnits="userSpaceOnUse" cx="450.90894" cy="189.57936" fx="450.90894" fy="189.57936" r="21.166656" gradientTransform="matrix(0.000000261256,0.117199,-0.210958,0.000000152308,66.784725,-11.291223)">
<stop offset="0" style="stop-color:rgb(0%,0%,0%);stop-opacity:0.313725;"/>
<stop offset="0.222222" style="stop-color:rgb(0%,0%,0%);stop-opacity:0.27451;"/>
<stop offset="1" style="stop-color:rgb(0%,0%,0%);stop-opacity:0;"/>
</radialGradient>
<linearGradient id="linear0" gradientUnits="userSpaceOnUse" x1="255.32306" y1="233.5" x2="255.32304" y2="254.66666" gradientTransform="matrix(0.0200401,0,0,0.093759,18.698079,20.158175)">
<stop offset="0" style="stop-color:rgb(0%,0%,0%);stop-opacity:0.27451;"/>
<stop offset="1" style="stop-color:rgb(0%,0%,0%);stop-opacity:0;"/>
</linearGradient>
<linearGradient id="linear1" gradientUnits="userSpaceOnUse" x1="254" y1="-168.66667" x2="254" y2="233.5" gradientTransform="matrix(1,0,0,1,0,0)">
<stop offset="0" style="stop-color:rgb(72.941176%,40.784314%,78.431373%);stop-opacity:1;"/>
<stop offset="1" style="stop-color:rgb(67.058824%,27.843137%,73.72549%);stop-opacity:1;"/>
</linearGradient>
<linearGradient id="linear2" gradientUnits="userSpaceOnUse" x1="254" y1="233.5" x2="254" y2="-168.66667" gradientTransform="matrix(0.093759,0,0,0.093759,0,20.158175)">
<stop offset="0" style="stop-color:rgb(93.72549%,60.392157%,60.392157%);stop-opacity:1;"/>
<stop offset="1" style="stop-color:rgb(100%,80.392157%,82.352941%);stop-opacity:1;"/>
</linearGradient>
<linearGradient id="linear3" gradientUnits="userSpaceOnUse" x1="960" y1="1695.1182" x2="960" y2="175.11813" gradientTransform="matrix(0.0248071,0,0,0.0248071,0,0)">
<stop offset="0" style="stop-color:rgb(92.54902%,25.098039%,47.843137%);stop-opacity:1;"/>
<stop offset="1" style="stop-color:rgb(94.117647%,38.431373%,57.254902%);stop-opacity:1;"/>
</linearGradient>
<linearGradient id="linear4" gradientUnits="userSpaceOnUse" x1="960" y1="1695.1182" x2="960" y2="175.11813" gradientTransform="matrix(0.0248071,0,0,0.0248071,0,0)">
<stop offset="0" style="stop-color:rgb(47.45098%,33.333333%,28.235294%);stop-opacity:1;"/>
<stop offset="1" style="stop-color:rgb(55.294118%,43.137255%,38.823529%);stop-opacity:1;"/>
</linearGradient>
</defs>
<g id="surface1">
<path style=" stroke:none;fill-rule:nonzero;fill:url(#radial0);" d="M 27.289062 42.050781 L 31.257812 42.050781 L 31.257812 40.066406 L 27.289062 40.066406 Z M 27.289062 42.050781 "/>
<path style=" stroke:none;fill-rule:nonzero;fill:url(#radial1);" d="M 20.339844 42.050781 L 16.371094 42.050781 L 16.371094 44.035156 L 20.339844 44.035156 Z M 20.339844 42.050781 "/>
<path style=" stroke:none;fill-rule:nonzero;fill:url(#radial2);" d="M 20.339844 42.050781 L 16.371094 42.050781 L 16.371094 40.066406 L 20.339844 40.066406 Z M 20.339844 42.050781 "/>
<path style=" stroke:none;fill-rule:nonzero;fill:url(#radial3);" d="M 27.289062 42.050781 L 31.257812 42.050781 L 31.257812 44.035156 L 27.289062 44.035156 Z M 27.289062 42.050781 "/>
<path style=" stroke:none;fill-rule:nonzero;fill:url(#linear0);" d="M 20.339844 41.554688 L 27.289062 41.554688 L 27.289062 44.035156 L 20.339844 44.035156 Z M 20.339844 41.554688 "/>
<path style="fill-rule:nonzero;fill:url(#linear1);stroke-width:3;stroke-linecap:round;stroke-linejoin:miter;stroke:rgb(20%,20%,20%);stroke-opacity:1;stroke-miterlimit:4;" d="M 254.017409 -168.671091 C 365.048473 -168.671091 455.081542 -78.638022 455.081542 32.434704 C 455.081542 143.465768 365.048473 233.498837 254.017409 233.498837 C 142.944683 233.498837 52.911614 143.465768 52.911614 32.434704 C 52.911614 -78.638022 142.944683 -168.671091 254.017409 -168.671091 Z M 254.017409 -168.671091 " transform="matrix(0.093759,0,0,0.093759,0,20.158175)"/>
<path style=" stroke:none;fill-rule:nonzero;fill:url(#linear2);" d="M 23.816406 12.28125 C 29.84375 12.28125 34.730469 17.167969 34.730469 23.199219 C 34.730469 29.226562 29.84375 34.113281 23.816406 34.113281 C 17.785156 34.113281 12.898438 29.226562 12.898438 23.199219 C 12.898438 17.167969 17.785156 12.28125 23.816406 12.28125 Z M 23.816406 12.28125 "/>
<path style=" stroke:none;fill-rule:nonzero;fill:rgb(100%,100%,100%);fill-opacity:0.392157;" d="M 23.816406 12.28125 C 17.769531 12.28125 12.898438 17.152344 12.898438 23.199219 C 12.898438 23.320312 12.902344 23.445312 12.90625 23.570312 C 13.101562 17.695312 17.890625 13.027344 23.816406 13.027344 C 29.738281 13.027344 34.527344 17.695312 34.722656 23.570312 C 34.726562 23.445312 34.730469 23.320312 34.730469 23.199219 C 34.730469 17.152344 29.863281 12.28125 23.816406 12.28125 Z M 23.816406 12.28125 "/>
<path style="fill:none;stroke-width:3;stroke-linecap:round;stroke-linejoin:miter;stroke:rgb(12.941176%,12.941176%,12.941176%);stroke-opacity:1;stroke-miterlimit:4;" d="M 254.017409 -84.012509 C 318.302937 -84.012509 370.42296 -31.892486 370.42296 32.434704 C 370.42296 96.720232 318.302937 148.840255 254.017409 148.840255 C 189.690219 148.840255 137.570196 96.720232 137.570196 32.434704 C 137.570196 -31.892486 189.690219 -84.012509 254.017409 -84.012509 Z M 254.017409 -84.012509 " transform="matrix(0.093759,0,0,0.093759,0,20.158175)"/>
<path style=" stroke:none;fill-rule:nonzero;fill:url(#linear3);" d="M 14.597656 30.175781 L 20.839844 38.914062 C 20.839844 38.914062 24.1875 40.371094 27.464844 41.699219 C 33.820312 40.464844 39.015625 36.054688 41.34375 30.175781 Z M 14.597656 30.175781 "/>
<path style=" stroke:none;fill-rule:nonzero;fill:rgb(100%,100%,100%);fill-opacity:0.392157;" d="M 14.597656 30.175781 L 15.066406 30.828125 L 41.070312 30.828125 C 41.164062 30.613281 41.257812 30.394531 41.34375 30.175781 Z M 14.597656 30.175781 "/>
<path style="fill:none;stroke-width:12.765609;stroke-linecap:butt;stroke-linejoin:miter;stroke:rgb(12.941176%,12.941176%,12.941176%);stroke-opacity:1;stroke-miterlimit:4;" d="M 588.44775 1216.419286 L 840.077268 1568.669117 C 840.077268 1568.669117 975.025012 1627.403666 1107.138382 1680.941861 C 1363.334392 1631.182833 1572.763214 1453.404532 1666.612521 1216.419286 Z M 588.44775 1216.419286 " transform="matrix(0.0248071,0,0,0.0248071,0,0)"/>
<path style=" stroke:none;fill-rule:nonzero;fill:url(#linear4);" d="M 5.824219 17.527344 C 5.261719 19.316406 4.960938 21.21875 4.960938 23.199219 C 4.960938 33.640625 13.371094 42.050781 23.816406 42.050781 C 28.445312 42.050781 32.671875 40.398438 35.949219 37.648438 C 34.367188 37.453125 33.105469 37.109375 29.484375 37.109375 C 27.457031 37.109375 22.105469 38.914062 20.109375 35.113281 C 18.558594 32.105469 15.738281 29.699219 13.425781 29.097656 C 11.464844 28.589844 10.925781 26.691406 10.765625 24.410156 C 10.578125 22.003906 8.644531 21.941406 7.410156 20.390625 C 6.589844 19.316406 6.375 18.160156 5.824219 17.527344 Z M 5.824219 17.527344 "/>
<path style=" stroke:none;fill-rule:nonzero;fill:rgb(0%,0%,0%);fill-opacity:0.196078;" d="M 23.816406 42.050781 C 13.371094 42.050781 4.960938 33.640625 4.960938 23.199219 C 4.960938 23.136719 4.960938 23.074219 4.960938 23.011719 C 5.0625 33.371094 13.433594 41.679688 23.816406 41.679688 C 34.199219 41.679688 42.570312 33.371094 42.667969 23.011719 C 42.667969 23.074219 42.667969 23.136719 42.667969 23.199219 C 42.667969 33.640625 34.257812 42.050781 23.816406 42.050781 Z M 23.816406 42.050781 "/>
<path style=" stroke:none;fill-rule:nonzero;fill:rgb(100%,100%,100%);fill-opacity:0.392157;" d="M 23.816406 4.34375 C 13.371094 4.34375 4.960938 12.753906 4.960938 23.199219 C 4.960938 23.257812 4.960938 23.320312 4.960938 23.382812 C 5.0625 13.023438 13.433594 4.714844 23.816406 4.714844 C 34.199219 4.714844 42.570312 13.023438 42.667969 23.382812 C 42.667969 23.320312 42.667969 23.257812 42.667969 23.199219 C 42.667969 12.753906 34.257812 4.34375 23.816406 4.34375 Z M 23.816406 4.34375 "/>
<path style=" stroke:none;fill-rule:nonzero;fill:rgb(100%,100%,100%);fill-opacity:0.392157;" d="M 5.824219 17.527344 C 5.261719 19.316406 4.960938 21.21875 4.960938 23.199219 C 4.960938 23.296875 4.960938 23.398438 4.964844 23.5 C 4.992188 21.632812 5.292969 19.835938 5.824219 18.140625 C 6.375 18.773438 6.589844 19.925781 7.410156 21 C 8.644531 22.550781 10.578125 22.617188 10.765625 25.023438 C 10.925781 27.300781 11.464844 29.203125 13.425781 29.710938 C 15.738281 30.3125 18.558594 32.71875 20.109375 35.726562 C 22.105469 39.527344 27.457031 37.722656 29.484375 37.722656 C 32.601562 37.722656 33.96875 37.976562 35.296875 38.171875 C 35.519531 38.003906 35.734375 37.828125 35.949219 37.648438 C 34.367188 37.453125 33.105469 37.109375 29.484375 37.109375 C 27.457031 37.109375 22.105469 38.914062 20.109375 35.113281 C 18.558594 32.105469 15.738281 29.699219 13.425781 29.097656 C 11.464844 28.589844 10.925781 26.691406 10.765625 24.410156 C 10.578125 22.003906 8.644531 21.941406 7.410156 20.390625 C 6.589844 19.316406 6.375 18.160156 5.824219 17.527344 Z M 5.824219 17.527344 "/>
<path style=" stroke:none;fill-rule:nonzero;fill:rgb(12.941176%,12.941176%,12.941176%);fill-opacity:1;" d="M 23.816406 4.203125 C 13.292969 4.203125 4.820312 12.675781 4.820312 23.199219 C 4.820312 33.71875 13.292969 42.191406 23.816406 42.191406 C 34.335938 42.191406 42.808594 33.71875 42.808594 23.199219 C 42.808594 12.675781 34.335938 4.203125 23.816406 4.203125 Z M 23.816406 4.484375 C 34.183594 4.484375 42.527344 12.828125 42.527344 23.199219 C 42.527344 33.566406 34.183594 41.910156 23.816406 41.910156 C 13.445312 41.910156 5.101562 33.566406 5.101562 23.199219 C 5.101562 12.828125 13.445312 4.484375 23.816406 4.484375 Z M 23.816406 4.484375 "/>
<path style=" stroke:none;fill-rule:nonzero;fill:rgb(0%,0%,0%);fill-opacity:0.235294;" d="M 5.953125 16.746094 C 5.632812 17.761719 5.394531 18.8125 5.25 19.890625 C 5.390625 19.085938 5.582031 18.296875 5.824219 17.527344 C 6.375 18.160156 6.589844 19.316406 7.410156 20.390625 C 8.644531 21.941406 10.578125 22.003906 10.765625 24.410156 C 10.925781 26.691406 11.464844 28.589844 13.425781 29.097656 C 15.738281 29.699219 18.558594 32.105469 20.109375 35.113281 C 22.105469 38.914062 27.457031 37.109375 29.484375 37.109375 C 33.105469 37.109375 34.367188 37.453125 35.949219 37.648438 C 35.933594 37.660156 35.917969 37.671875 35.90625 37.683594 C 36.179688 37.480469 36.449219 37.269531 36.714844 37.050781 C 35.097656 36.851562 33.8125 36.503906 30.113281 36.503906 C 28.042969 36.503906 22.578125 38.328125 20.542969 34.492188 C 18.957031 31.457031 16.078125 29.027344 13.71875 28.421875 C 11.714844 27.910156 11.164062 25.992188 11.003906 23.691406 C 10.808594 21.265625 8.835938 21.199219 7.574219 19.632812 C 6.734375 18.550781 6.519531 17.386719 5.953125 16.746094 Z M 5.953125 16.746094 "/>
<path style="fill:none;stroke-width:12.765609;stroke-linecap:butt;stroke-linejoin:miter;stroke:rgb(12.941176%,12.941176%,12.941176%);stroke-opacity:1;stroke-miterlimit:4;" d="M 234.780732 706.54671 C 212.105732 778.665808 199.980905 855.3514 199.980905 935.186297 C 199.980905 1356.090989 539.003653 1695.113737 960.065811 1695.113737 C 1146.662167 1695.113737 1317.0396 1628.505923 1449.15297 1517.650366 C 1385.379531 1509.777102 1334.518246 1495.920158 1188.547932 1495.920158 C 1106.823451 1495.920158 891.096018 1568.669117 810.63126 1415.4554 C 748.117544 1294.207134 634.427612 1197.208522 541.208167 1172.958869 C 462.160596 1152.488383 440.430387 1075.960257 433.974311 984.000533 C 426.415978 887.001921 348.470664 884.482476 298.711636 821.96876 C 265.643927 778.665808 256.983337 732.056086 234.780732 706.54671 Z M 234.780732 706.54671 " transform="matrix(0.0248071,0,0,0.0248071,0,0)"/>
<path style=" stroke:none;fill-rule:nonzero;fill:rgb(0%,0%,0%);fill-opacity:0.235294;" d="M 14.980469 29.625 C 15.144531 29.851562 15.316406 30.070312 15.496094 30.28125 L 32.132812 30.28125 C 32.3125 30.070312 32.484375 29.851562 32.648438 29.625 Z M 14.980469 29.625 "/>
</g>
</svg>
